static/images/color-schemes/color-scheme-thumbnail-default.svg

<svg height="160" width="240" xmlns="http://www.w3.org/2000/svg"><g fill="none" fill-rule="evenodd"><path d="m70 20h170v140h-170z" fill="#f6f6f6"/><path d="m0 20h70v140h-70z" fill="#e1e2e2"/><path d="m0 86h70v16h-70z" fill="#636d75"/><path d="m7 91h55v6h-55z" fill="#fff"/><path d="m7 75h37v6h-37zm0 32h29v6h-29zm0 16h45v6h-45z" fill="#636d75"/><circle cx="35.5" cy="45.5" fill="#b0b5b8" r="16.5"/><path d="m90 36h130v107h-130z" fill="#fff"/><path d="m0 0h240v20h-240z" fill="#016087"/><rect fill="#d8720e" height="16" rx="3" width="48" x="160" y="48"/></g></svg>

<svg width="240" height="160" xmlns="http://www.w3.org/2000/svg">
  <g fill="none" fill-rule="evenodd">
    <path fill="#F6F6F6" d="M70 20h170v140H70z"/>
    <path fill="#E1E2E2" d="M0 20h70v140H0z"/>
    <path fill="#636D75" d="M0 86h70v16H0z"/>
    <path fill="#FFF" d="M7 91h55v6H7z"/>
    <path fill="#636D75" d="M7 75h37v6H7zM7 107h29v6H7zM7 123h45v6H7z"/>
    <circle fill="#B0B5B8" cx="35.5" cy="45.5" r="16.5"/>
    <path fill="#FFF" d="M90 36h130v107H90z"/>
    <path fill="#016087" d="M0 0h240v20H0z"/>
    <rect fill="#D8720E" x="160" y="48" width="48" height="16" rx="3"/>
  </g>
</svg>
